X:1
T:Elsie Marley
M:6/8
L:1/8
K:C
 EDE C2 C| C2 c cGF|E-D E C2 C| C2 ^A AFD|E-D E CCC|c-d c cGE| FdF EcE|\
 D2 ^AA-F D| E2 F G2 G|G-A Bc-G G| E2 F G2 G| D2 ^AA-F D| E2 F G2 G|\
G-A Bc-G E|F-d FE-c E| D2 ^AA-F-D|
